X: 7
T:Georgia Railroad
S:Karl Moore - Peach Bottom String Band
C:
M:4/4
L:1/4
K:A
B|\
"A"c3/2c/2cA/2B/2|\
cBAF|\
"Bm(7)"B3/2B/2BA/2B/2|\
"A"c/2B/2A"E"B2|\
"A"c3/2c/2cA/2B/2|\
cBAF|\
"Bm"AA/2B/2AF|\
"E"E/2F/2A"A"A2::\
"A"agfe|\
fe/2c/2BA|\
"A"agfe|\
"D"f/2d/2f"E"g2|\
"A"agfe|\
fe/2c/2BA/2F/2|\
"Bm"AA/2B/2AF|\
"E"E/2F/2A"A"A2:|\
